Flat-Remix-Dark/apps/scalable/abiword.svg

<svg xmlns="http://www.w3.org/2000/svg" xmlns:xlink="http://www.w3.org/1999/xlink" width="384pt" height="384pt" version="1.1" viewBox="0 0 384 384">
 <defs>
  <linearGradient id="linearGradient839">
   <stop style="stop-color:#17a185" offset="0"/>
   <stop style="stop-color:#20a8af" offset="1"/>
  </linearGradient>
  <linearGradient id="linearGradient841" x1="109.017" x2="235.932" y1="247.322" y2="82.983" gradientUnits="userSpaceOnUse" xlink:href="#linearGradient839"/>
 </defs>
 <g>
  <path style="fill:url(#linearGradient841)" d="M 44.160156 360.449219 C 39.257812 360.019531 35.390625 358.316406 32.027344 355.105469 C 22.90625 346.40625 20.878906 326.617188 26.023438 296.5 C 36.28125 236.445312 72.480469 149.714844 110.730469 93.527344 C 137.675781 53.949219 163.335938 30.910156 187.179688 24.890625 C 192.871094 23.453125 198.28125 22.929688 202.144531 23.441406 C 220.875 25.9375 240.21875 42.585938 261.410156 74.453125 C 285.171875 110.179688 310.71875 165.367188 333.519531 230.21875 C 347.886719 271.082031 358.558594 309.425781 360.535156 327.277344 C 361.316406 334.324219 360.007812 338.144531 356.238281 339.835938 C 355.113281 340.339844 353.871094 340.746094 353.476562 340.742188 C 351.917969 340.714844 348.683594 340.015625 347.652344 339.484375 C 345.089844 338.160156 340.96875 332.464844 335.515625 322.726562 C 332.359375 317.082031 319.265625 290.914062 313.679688 279.078125 C 294.644531 238.75 275.460938 200.242188 263.027344 177.410156 C 237.285156 130.140625 216.765625 102.65625 201.871094 95.488281 C 193.304688 91.371094 185.011719 94.734375 172.21875 107.519531 C 158.671875 121.058594 144.550781 141.195312 128.917969 169.25 C 123.566406 178.859375 112.230469 201.6875 107.574219 212.238281 C 93.1875 244.839844 84.121094 273.550781 82.402344 291.949219 C 81.796875 298.421875 82.65625 303.253906 84.515625 303.84375 C 85.46875 304.148438 91.542969 303.453125 95.617188 302.578125 C 103.269531 300.929688 121.78125 294.761719 141.703125 287.222656 C 150.199219 284.003906 172.867188 274.914062 191.097656 267.40625 C 229.8125 251.46875 241.21875 247.082031 256.121094 242.410156 C 260.816406 240.9375 262.027344 240.699219 265.527344 240.546875 C 269.160156 240.386719 269.699219 240.445312 271.207031 241.175781 C 273.410156 242.242188 274.695312 244.1875 274.910156 246.773438 C 275.046875 248.449219 274.902344 249.082031 273.921875 251.078125 C 272.316406 254.335938 269.414062 257.847656 263.960938 263.117188 C 247.558594 278.964844 218.042969 300.101562 189.480469 316.441406 C 150.566406 338.707031 113.585938 352.949219 80.90625 358.265625 C 67.746094 360.40625 53.390625 361.257812 44.160156 360.449219 Z M 44.160156 360.449219"/>
 </g>
 <path style="opacity:0.3" d="M 259.46875 115.10938 C 251.04483 115.34335 241.88493 121.10694 229.625 133.35938 C 211.56249 151.41145 192.73437 178.25976 171.89062 215.66602 C 164.75521 228.47851 149.63996 258.91667 143.43164 272.98438 C 124.24936 316.45312 112.16081 354.73438 109.86914 379.26562 C 109.51333 383.0693 109.53679 386.44666 109.88672 389.10352 C 112.2151 364.56612 124.29017 326.36062 143.43164 282.98438 C 149.63996 268.91667 164.75521 238.47851 171.89062 225.66602 C 192.73437 188.25976 211.56249 161.41145 229.625 143.35938 C 246.68229 126.31251 257.74024 121.82879 269.16211 127.31836 C 289.02148 136.87565 316.38022 173.52082 350.70312 236.54688 C 367.28124 266.98958 392.86001 318.33269 418.24023 372.10352 C 425.68814 387.88477 443.14518 422.77669 447.35352 430.30273 C 454.62436 443.28711 460.12046 450.88087 463.53711 452.64648 C 464.91211 453.35482 469.22461 454.28573 471.30273 454.32227 C 471.82877 454.32747 473.48438 453.78711 474.98438 453.11523 C 480.01041 450.86003 481.75456 445.76499 480.71289 436.36914 C 480.68508 436.11797 480.63781 435.81972 480.60742 435.5625 C 479.86027 439.33407 478.02752 441.74976 474.98438 443.11523 C 473.48438 443.78711 471.82877 444.32747 471.30273 444.32227 C 469.22461 444.28573 464.91211 443.35482 463.53711 442.64648 C 460.12047 440.88088 454.62436 433.28712 447.35352 420.30273 C 443.14518 412.77669 425.68814 377.88477 418.24023 362.10352 C 392.86001 308.33269 367.28124 256.98957 350.70312 226.54688 C 316.38023 163.52082 289.02147 126.87565 269.16211 117.31836 C 265.94971 115.77442 262.76507 115.01782 259.46875 115.10938 z M 365.2168 324.79297 C 363.07405 329.13073 359.20622 333.80771 351.94727 340.82227 C 330.07747 361.95247 290.72394 390.13542 252.64062 411.92188 C 200.75521 441.60938 151.44793 460.59895 107.875 467.6875 C 90.32812 470.54166 71.188153 471.67773 58.880859 470.59961 C 52.344406 470.02669 47.187498 467.75588 42.703125 463.47461 C 35.585018 456.68573 31.712512 444.8217 31.095703 428.10547 C 30.362136 450.15895 34.239361 465.40231 42.703125 473.47461 C 47.187498 477.75586 52.344406 480.02669 58.880859 480.59961 C 71.188153 481.67773 90.32812 480.54166 107.875 477.6875 C 151.44792 470.59897 200.75521 451.60937 252.64062 421.92188 C 290.72396 400.13541 330.07747 371.95247 351.94727 350.82227 C 359.21809 343.79623 363.0879 339.11524 365.22852 334.77148 C 366.53557 332.11003 366.72915 331.26562 366.54688 329.03125 C 366.41284 327.41795 365.9549 325.99971 365.2168 324.79297 z" transform="scale(0.75)"/>
 <path style="fill:#ffffff;opacity:0.3" d="M 265.30273 31 C 260.74512 30.998291 255.26367 31.75 249.57227 33.1875 C 217.7806 41.21354 183.5677 71.932285 147.64062 124.70312 C 96.64062 199.61978 48.374346 315.26106 34.697266 395.33398 C 31.852688 411.98675 30.658677 426.26162 31.095703 438.10547 C 31.416186 428.47064 32.611673 417.54349 34.697266 405.33398 C 48.374346 325.26106 96.64062 209.61978 147.64062 134.70312 C 183.5677 81.932293 217.7806 51.21354 249.57227 43.1875 C 257.1608 41.270833 264.37435 40.573579 269.52539 41.255859 C 294.49935 44.583993 320.29166 66.781898 348.54688 109.27148 C 380.22915 156.90692 414.29232 230.49024 444.69336 316.95898 C 463.64747 370.86842 477.75844 421.44369 480.60742 445.5625 C 481.09426 443.10498 481.12385 440.07603 480.71289 436.36914 C 478.07746 412.56707 463.84961 361.44336 444.69336 306.95898 C 414.29232 220.49024 380.22915 146.9069 348.54688 99.271484 C 320.29166 56.781898 294.49935 34.583979 269.52539 31.255859 C 268.23763 31.085286 266.82194 31.00057 265.30273 31 z M 356.98047 320.63281 C 356.20052 320.6403 355.24805 320.67513 354.03711 320.72852 C 349.37044 320.93165 347.75457 321.24934 341.49414 323.21289 C 321.62435 329.44205 306.41666 335.29102 254.79688 356.54102 C 230.48958 366.55143 200.26563 378.67124 188.9375 382.96289 C 162.37502 393.01497 137.69336 401.23958 127.49023 403.4375 C 122.05794 404.60417 113.95833 405.53125 112.6875 405.125 C 111.301 404.68516 110.33074 402.47482 109.88672 399.10352 C 109.88175 399.15584 109.87402 399.21342 109.86914 399.26562 C 109.06185 407.89583 110.20833 414.33853 112.6875 415.125 C 113.95833 415.53125 122.05794 414.60417 127.49023 413.4375 C 137.69336 411.23958 162.37502 403.01497 188.9375 392.96289 C 200.26563 388.67124 230.48958 376.55143 254.79688 366.54102 C 306.41666 345.29102 321.62435 339.44205 341.49414 333.21289 C 347.75457 331.24934 349.37044 330.93165 354.03711 330.72852 C 358.88087 330.51498 359.59897 330.5944 361.60938 331.56836 C 363.17241 332.32493 364.37743 333.42069 365.2168 334.79297 C 365.2203 334.78587 365.22502 334.77858 365.22852 334.77148 C 366.53557 332.11003 366.72915 331.26562 366.54688 329.03125 C 366.26041 325.58333 364.5469 322.99024 361.60938 321.56836 C 360.10157 320.83789 359.32031 320.61035 356.98047 320.63281 z" transform="scale(0.75)"/>
</svg>

<svg width="512" height="512" version="1.1" viewBox="0 0 384 384" xmlns="http://www.w3.org/2000/svg" xmlns:xlink="http://www.w3.org/1999/xlink"><defs><linearGradient id="linearGradient841" x1="109.02" x2="235.93" y1="247.32" y2="82.983" gradientUnits="userSpaceOnUse"><stop stop-color="#17a185" offset="0"/><stop stop-color="#20a8af" offset="1"/></linearGradient></defs><path d="m44.16 360.45c-4.9023-0.42969-8.7695-2.1328-12.133-5.3438-9.1211-8.6992-11.148-28.488-6.0039-58.605 10.258-60.055 46.457-146.79 84.707-202.97 26.945-39.578 52.605-62.617 76.449-68.637 5.6914-1.4375 11.102-1.9609 14.965-1.4492 18.73 2.4961 38.074 19.145 59.266 51.012 23.762 35.727 49.309 90.914 72.109 155.77 14.367 40.863 25.039 79.207 27.016 97.059 0.78125 7.0469-0.52735 10.867-4.2969 12.559-1.125 0.5039-2.3672 0.91015-2.7617 0.90625-1.5586-0.0274-4.793-0.72657-5.8242-1.2578-2.5625-1.3242-6.6836-7.0195-12.137-16.758-3.1562-5.6445-16.25-31.812-21.836-43.648-19.035-40.328-38.219-78.836-50.652-101.67-25.742-47.27-46.262-74.754-61.156-81.922-8.5664-4.1172-16.859-0.75391-29.652 12.031-13.547 13.539-27.668 33.676-43.301 61.73-5.3516 9.6094-16.688 32.438-21.344 42.988-14.387 32.602-23.453 61.312-25.172 79.711-0.60547 6.4726 0.25391 11.305 2.1133 11.895 0.95312 0.30469 7.0273-0.39063 11.102-1.2656 7.6523-1.6484 26.164-7.8164 46.086-15.355 8.4961-3.2188 31.164-12.309 49.395-19.816 38.715-15.938 50.121-20.324 65.023-24.996 4.6953-1.4727 5.9062-1.7109 9.4062-1.8633 3.6328-0.16015 4.1719-0.10156 5.6797 0.62891 2.2031 1.0664 3.4883 3.0117 3.7031 5.5977 0.13671 1.6758-8e-3 2.3086-0.98829 4.3047-1.6055 3.2578-4.5078 6.7695-9.9609 12.039-16.402 15.848-45.918 36.984-74.48 53.324-38.914 22.266-75.895 36.508-108.57 41.824-13.16 2.1406-27.516 2.9922-36.746 2.1836z" fill="url(#linearGradient841)"/><path transform="scale(.75)" d="m259.47 115.11c-8.4239 0.23397-17.584 5.9976-29.844 18.25-18.063 18.052-36.891 44.9-57.734 82.307-7.1354 12.812-22.251 43.251-28.459 57.318-19.182 43.469-31.271 81.75-33.562 106.28-0.35581 3.8037-0.33235 7.181 0.0176 9.8379 2.3284-24.537 14.403-62.743 33.545-106.12 6.2083-14.068 21.324-44.506 28.459-57.318 20.844-37.406 39.672-64.255 57.734-82.307 17.057-17.047 28.115-21.531 39.537-16.041 19.859 9.5573 47.218 46.202 81.541 109.23 16.578 30.443 42.157 81.786 67.537 135.56 7.4479 15.781 24.905 50.673 29.113 58.199 7.2708 12.984 12.767 20.578 16.184 22.344 1.375 0.70834 5.6875 1.6392 7.7656 1.6758 0.52604 5e-3 2.1816-0.53516 3.6816-1.207 5.026-2.2552 6.7702-7.3502 5.7285-16.746-0.0278-0.25117-0.0751-0.54942-0.10547-0.80664-0.74715 3.7716-2.5799 6.1873-5.623 7.5527-1.5 0.67188-3.1556 1.2122-3.6816 1.207-2.0781-0.0365-6.3906-0.96745-7.7656-1.6758-3.4166-1.7656-8.9128-9.3594-16.184-22.344-4.2083-7.526-21.665-42.418-29.113-58.199-25.38-53.771-50.959-105.11-67.537-135.56-34.323-63.026-61.682-99.671-81.541-109.23-3.2124-1.5439-6.397-2.3005-9.6934-2.209zm105.75 209.68c-2.1428 4.3378-6.0106 9.0147-13.27 16.029-21.87 21.13-61.223 49.313-99.307 71.1-51.885 29.688-101.19 48.677-144.77 55.766-17.547 2.8542-36.687 3.9902-48.994 2.9121-6.5365-0.57292-11.693-2.8437-16.178-7.125-7.1181-6.7889-10.991-18.653-11.607-35.369-0.73357 22.053 3.1437 37.297 11.607 45.369 4.4844 4.2812 9.6413 6.5521 16.178 7.125 12.307 1.0781 31.447-0.058 48.994-2.9121 43.573-7.0885 92.88-26.078 144.77-55.766 38.083-21.786 77.437-49.969 99.307-71.1 7.2708-7.026 11.141-11.707 13.281-16.051 1.307-2.6614 1.5006-3.5059 1.3184-5.7402-0.13404-1.6133-0.59198-3.0315-1.3301-4.2383z" opacity=".3"/><path transform="scale(.75)" d="m265.3 31c-4.5576-0.0017-10.039 0.75-15.73 2.1875-31.792 8.026-66.005 38.745-101.93 91.516-51 74.917-99.266 190.56-112.94 270.63-2.8446 16.653-4.0386 30.928-3.6016 42.771 0.32048-9.6348 1.516-20.562 3.6016-32.771 13.677-80.073 61.943-195.71 112.94-270.63 35.927-52.771 70.14-83.49 101.93-91.516 7.5885-1.9167 14.802-2.6139 19.953-1.9316 24.974 3.3281 50.766 25.526 79.021 68.016 31.682 47.635 65.745 121.22 96.146 207.69 18.954 53.909 33.065 104.48 35.914 128.6 0.48684-2.4575 0.51643-5.4865 0.10547-9.1934-2.6354-23.802-16.863-74.926-36.02-129.41-30.401-86.469-64.464-160.05-96.146-207.69-28.255-42.49-54.048-64.688-79.021-68.016-1.2878-0.17057-2.7034-0.25529-4.2227-0.25586zm91.678 289.63c-0.77995 7e-3 -1.7324 0.0423-2.9434 0.0957-4.6667 0.20313-6.2825 0.52082-12.543 2.4844-19.87 6.2292-35.077 12.078-86.697 33.328-24.307 10.01-54.531 22.13-65.859 26.422-26.562 10.052-51.244 18.277-61.447 20.475-5.4323 1.1667-13.532 2.0938-14.803 1.6875-1.3865-0.43984-2.3568-2.6502-2.8008-6.0215-5e-3 0.0523-0.0127 0.1099-0.0176 0.1621-0.80729 8.6302 0.33919 15.073 2.8184 15.859 1.2708 0.40625 9.3704-0.52083 14.803-1.6875 10.203-2.1979 34.885-10.423 61.447-20.475 11.328-4.2916 41.552-16.411 65.859-26.422 51.62-21.25 66.827-27.099 86.697-33.328 6.2604-1.9636 7.8763-2.2812 12.543-2.4844 4.8438-0.21354 5.5619-0.13412 7.5723 0.83984 1.563 0.75657 2.768 1.8523 3.6074 3.2246 4e-3 -7e-3 8e-3 -0.0144 0.0117-0.0215 1.307-2.6614 1.5006-3.5059 1.3184-5.7402-0.28647-3.4479-2-6.041-4.9375-7.4629-1.5078-0.73047-2.2891-0.95801-4.6289-0.93555z" fill="#fff" opacity=".3"/></svg>
